**harmony	**harte	**kern	**silbe	**rhyme	**timestamp	**phrase
*M4/4	*M4/4	*ICvox	*	*	*	*
*	*	*VRlead	*	*	*	*
*	*	*Hstimme	*	*	*	*
*D:	*D:	*D:	*	*	*	*
*	*	*M4/4	*	*	*	*
*	*	*clefF4	*	*	*	*
1r;	1r	r;	.	.	0	.
=1	=1	=1	=1	=1	=1	=1
*>Letter>A	*>Letter>A	*>Letter>A	*>Letter>A	*>Letter>A	*>Letter>A	*>Letter>A
*>Label>Intro	*>Label>Intro	*>Label>Intro	*>Label>Intro	*>Label>Intro	*>Label>Intro	*>Label>Intro
1DM	D:maj	1r	.	.	0.041	newline
=2	=2	=2	=2	=2	=2	=2
1DM	D:maj	1r	.	.	2.22	.
=3	=3	=3	=3	=3	=3	=3
1DM	D:maj	1r	.	.	4.4	.
=4	=4	=4	=4	=4	=4	=4
1DM	D:maj	1r	.	.	6.58	.
=5	=5	=5	=5	=5	=5	=5
1DM	D:maj	1r	.	.	8.759	newline
=6	=6	=6	=6	=6	=6	=6
1AM	A:sus4(b7)	1r	.	.	10.943	.
=7	=7	=7	=7	=7	=7	=7
1Bmm	B:min7	1r	.	.	13.126	.
=8	=8	=8	=8	=8	=8	=8
1GMM	G:maj9	1r	.	.	15.31	.
=9	=9	=9	=9	=9	=9	=9
1DM	D:maj	1r	.	.	17.493	newline
=10	=10	=10	=10	=10	=10	=10
1AM	A:sus4(b7)	1r	.	.	19.671	.
=11	=11	=11	=11	=11	=11	=11
1Bmm	B:min7	1r	.	.	21.848	.
=12	=12	=12	=12	=12	=12	=12
1GMM	G:maj9	1r	.	.	24.026	.
=13	=13	=13	=13	=13	=13	=13
*>Letter>B	*>Letter>B	*>Letter>B	*>Letter>B	*>Letter>B	*>Letter>B	*>Letter>B
*>Label>Verse	*>Label>Verse	*>Label>Verse	*>Label>Verse	*>Label>Verse	*>Label>Verse	*>Label>Verse
1DM	D:maj	2r	.	.	26.203	newline
.	.	8r	.	.	.	.
.	.	8D	See	.	.	.
.	.	8E	the	.	.	.
.	.	[8F#	stone	.	.	.
=14	=14	=14	=14	=14	=14	=14
1AM	A:sus4(b7)	4F#]	_	.	28.398	.
.	.	4E	set	.	.	.
.	.	8D	in	.	.	.
.	.	4E	your	.	.	.
.	.	8E	eyes	A	.	.
=15	=15	=15	=15	=15	=15	=15
1Bmm	B:min7	2F#	_	.	30.592	.
.	.	8r	.	.	.	.
.	.	8F#	See	.	.	.
.	.	8G	the	.	.	.
.	.	[8F#	thorn	.	.	.
=16	=16	=16	=16	=16	=16	=16
1GMM	G:maj9	4F#]	_	.	32.787	.
.	.	4E	twist	.	.	.
.	.	8D	in	.	.	.
.	.	4E	your	.	.	.
.	.	[8D	side	A	.	.
=17	=17	=17	=17	=17	=17	=17
1DM	D:maj	4D]	_	.	34.982	newline
.	.	4r	.	.	.	.
.	.	8r	.	.	.	.
.	.	4D	I'll	.	.	.
.	.	[8A	wait	B	.	.
=18	=18	=18	=18	=18	=18	=18
1AM	A:sus4(b7)	2A]	_	.	37.171	.
.	.	4r	.	.	.	.
.	.	8AA	for	.	.	.
.	.	[8BB	you	.	.	.
=19	=19	=19	=19	=19	=19	=19
1Bmm	B:min7	2BB]	_	.	39.36	.
.	.	2r	.	.	.	.
=20	=20	=20	=20	=20	=20	=20
1GMM	G:maj9	1r	.	.	41.549	.
=21	=21	=21	=21	=21	=21	=21
1DM	D:maj	2r	.	.	43.737	newline
.	.	8r	.	.	.	.
.	.	8F#	Slight	.	.	.
.	.	8F#	of	.	.	.
.	.	[8F#	hand	.	.	.
=22	=22	=22	=22	=22	=22	=22
1AM	A:sus4(b7)	4F#]	_	.	45.913	.
.	.	4E	and	.	.	.
.	.	8D	twist	.	.	.
.	.	4E	of	.	.	.
.	.	[8F#	fate	B	.	.
=23	=23	=23	=23	=23	=23	=23
1Bmm	B:min7	4F#]	_	.	48.09	.
.	.	8r	.	.	.	.
.	.	16AA	On	.	.	.
.	.	16AA	a	.	.	.
.	.	8F#	bed	.	.	.
.	.	4G	of	.	.	.
.	.	[8F#	nails	.	.	.
=24	=24	=24	=24	=24	=24	=24
1GMM	G:maj9	4F#]	_	.	50.266	.
.	.	4E	she	.	.	.
.	.	8D	makes	.	.	.
.	.	4E	me	.	.	.
.	.	[8D	wait	B	.	.
=25	=25	=25	=25	=25	=25	=25
1DM	D:maj	4D]	_	.	52.442	newline
.	.	4r	.	.	.	.
.	.	8r	.	.	.	.
.	.	8D	And	.	.	.
.	.	8D	I	.	.	.
.	.	[8A	wait	B	.	.
=26	=26	=26	=26	=26	=26	=26
1AM	A:sus4(b7)	2A]	_	.	54.615	.
.	.	4r	.	.	.	.
.	.	8AA	with-	.	.	.
.	.	[8BB	-out	.	.	.
=27	=27	=27	=27	=27	=27	=27
1Bmm	B:min7	8BB]	_	.	56.789	.
.	.	[4.F#	you	.	.	.
.	.	4F#]	_	.	.	.
.	.	4r	.	.	.	.
=28	=28	=28	=28	=28	=28	=28
1GMM	G:maj9	2r	.	.	58.962	.
.	.	8D	With	.	.	.
.	.	8D	or	.	.	.
.	.	8D	with-	.	.	.
.	.	[8E	-out	.	.	.
=29	=29	=29	=29	=29	=29	=29
*>Letter>C2	*>Letter>C2	*>Letter>C2	*>Letter>C2	*>Letter>C2	*>Letter>C2	*>Letter>C2
*>Label>Chorus	*>Label>Chorus	*>Label>Chorus	*>Label>Chorus	*>Label>Chorus	*>Label>Chorus	*>Label>Chorus
1DM	D:maj	8E]	_	.	61.135	newline
.	.	[4.F#	you	.	.	.
.	.	2F#]	_	.	.	.
=30	=30	=30	=30	=30	=30	=30
1AM	A:sus4(b7)	2r	.	.	63.33	.
.	.	8E	With	.	.	.
.	.	4E	or	.	.	.
.	.	8F#	with-	.	.	.
=31	=31	=31	=31	=31	=31	=31
1Bmm	B:min7	4.E	-out	.	65.524	.
.	.	4D	_	.	.	.
.	.	[4.D	you	.	.	.
=32	=32	=32	=32	=32	=32	=32
1GMM	G:maj9	4D]	_	.	67.719	.
.	.	4r	.	.	.	.
.	.	2r	.	.	.	.
=33	=33	=33	=33	=33	=33	=33
*>Letter>B2	*>Letter>B2	*>Letter>B2	*>Letter>B2	*>Letter>B2	*>Letter>B2	*>Letter>B2
*>Label>Verse	*>Label>Verse	*>Label>Verse	*>Label>Verse	*>Label>Verse	*>Label>Verse	*>Label>Verse
1DM	D:maj	2r	.	.	69.913	newline
.	.	8r	.	.	.	.
.	.	8F#	Through	.	.	.
.	.	8F#	the	.	.	.
.	.	[8F#	storm	C	.	.
=34	=34	=34	=34	=34	=34	=34
1AM	A:sus4(b7)	4F#]	_	.	72.095	.
.	.	4E	we	.	.	.
.	.	8D	reach	.	.	.
.	.	4E	the	.	.	.
.	.	[8F#	shore	C	.	.
=35	=35	=35	=35	=35	=35	=35
1Bmm	B:min7	4F#]	_	.	74.277	.
.	.	8r	.	.	.	.
.	.	8AA	You	.	.	.
.	.	8F#	give	.	.	.
.	.	4G	it	.	.	.
.	.	[8F#	all	.	.	.
=36	=36	=36	=36	=36	=36	=36
1GMM	G:maj9	4F#]	_	.	76.459	.
.	.	8E	but	.	.	.
.	.	4D	I	.	.	.
.	.	4E	want	.	.	.
.	.	[8D	more	C	.	.
=37	=37	=37	=37	=37	=37	=37
1DM	D:maj	4D]	_	.	78.641	newline
.	.	4r	.	.	.	.
.	.	8r	.	.	.	.
.	.	8D	And	.	.	.
.	.	8D	I'm	.	.	.
.	.	[8A	wait-	.	.	.
=38	=38	=38	=38	=38	=38	=38
1AM	A:sus4(b7)	2A]	_	.	80.828	.
.	.	4r	.	.	.	.
.	.	8AA	-ing	.	.	.
.	.	[8BB	for	C	.	.
=39	=39	=39	=39	=39	=39	=39
1Bmm	B:min7	8BB]	_	.	83.014	.
.	.	4.F#	you	.	.	.
.	.	2r	.	.	.	.
=40	=40	=40	=40	=40	=40	=40
1GMM	G:maj9	2r	.	.	85.2	.
.	.	8D	With	.	.	.
.	.	8D	or	C	.	.
.	.	8D	with-	.	.	.
.	.	[8E	-out	.	.	.
=41	=41	=41	=41	=41	=41	=41
*>Letter>C	*>Letter>C	*>Letter>C	*>Letter>C	*>Letter>C	*>Letter>C	*>Letter>C
*>Label>Chorus	*>Label>Chorus	*>Label>Chorus	*>Label>Chorus	*>Label>Chorus	*>Label>Chorus	*>Label>Chorus
1DM	D:maj	8E]	_	.	87.387	newline
.	.	[4.F#	you	.	.	.
.	.	2F#]	_	.	.	.
=42	=42	=42	=42	=42	=42	=42
1AM	A:sus4(b7)	2r	.	.	89.562	.
.	.	8e	With	.	.	.
.	.	4e	or	.	.	.
.	.	[8a	with-	.	.	.
=43	=43	=43	=43	=43	=43	=43
1Bmm	B:min7	8a]	_	.	91.737	.
.	.	4g	-out	.	.	.
.	.	4f#	you	.	.	.
.	.	4e	ah	.	.	.
.	.	[8d	_	.	.	.
=44	=44	=44	=44	=44	=44	=44
1GMM	G:maj9	4d]	_	.	93.912	.
.	.	4r	.	.	.	.
.	.	8d	I	.	.	.
.	.	4e	can't	.	.	.
.	.	[8f#	live	.	.	.
=45	=45	=45	=45	=45	=45	=45
1DM	D:maj	2f#]	_	.	96.088	newline
.	.	2r	.	.	.	.
=46	=46	=46	=46	=46	=46	=46
1AM	A:sus4(b7)	2r	.	.	98.278	.
.	.	8e	with	.	.	.
.	.	4e	or	.	.	.
.	.	8f#	with-	.	.	.
=47	=47	=47	=47	=47	=47	=47
1Bmm	B:min7	4.e	-out	.	100.468	.
.	.	4d	_	.	.	.
.	.	4.d	you	.	.	.
=48	=48	=48	=48	=48	=48	=48
1GMM	G:maj9	1r	.	.	102.658	.
=49	=49	=49	=49	=49	=49	=49
1DM	D:maj	1r	.	.	104.849	newline
=50	=50	=50	=50	=50	=50	=50
1AM	A:sus4(b7)	1r	.	.	107.021	.
=51	=51	=51	=51	=51	=51	=51
1Bmm	B:min7	1r	.	.	109.193	.
=52	=52	=52	=52	=52	=52	=52
1GMM	G:maj9	2r	.	.	111.365	.
.	.	8r	.	.	.	.
.	.	8d	And	.	.	.
.	.	4d	you	.	.	.
=53	=53	=53	=53	=53	=53	=53
*>Letter>D	*>Letter>D	*>Letter>D	*>Letter>D	*>Letter>D	*>Letter>D	*>Letter>D
*>Label>Bridge	*>Label>Bridge	*>Label>Bridge	*>Label>Bridge	*>Label>Bridge	*>Label>Bridge	*>Label>Bridge
1DM	D:maj	4.e	give	.	113.537	newline
.	.	8d	your-	.	.	.
.	.	4d	-self	.	.	.
.	.	8B	a-	.	.	.
.	.	[8B	-way	B	.	.
=54	=54	=54	=54	=54	=54	=54
1GMM	G:maj9	8B]	_	.	115.71	.
.	.	4.A	_	.	.	.
.	.	8r	.	.	.	.
.	.	8d	And	.	.	.
.	.	8d	you	.	.	.
.	.	[8e	give	.	.	.
=55	=55	=55	=55	=55	=55	=55
1DM	D:maj	4.e]	_	.	117.884	.
.	.	8d	your-	.	.	.
.	.	4d	-self	.	.	.
.	.	8B	a-	.	.	.
.	.	[8B	-way	.	.	.
=56	=56	=56	=56	=56	=56	=56
1GMM	G:maj9	8B]	_	.	120.057	.
.	.	4.A	_	.	.	.
.	.	8r	.	.	.	.
.	.	8d	And	.	.	.
.	.	8d	you	.	.	.
.	.	[8e	give	.	.	.
=57	=57	=57	=57	=57	=57	=57
1DM	D:maj	2e]	_	.	122.231	newline
.	.	8r	.	.	.	.
.	.	8d	And	.	.	.
.	.	8d	you	.	.	.
.	.	[8e	give	.	.	.
=58	=58	=58	=58	=58	=58	=58
1GMM	G:maj9	2e]	_	.	124.417	.
.	.	8r	.	.	.	.
.	.	8d	And	.	.	.
.	.	4d	you	.	.	.
=59	=59	=59	=59	=59	=59	=59
1Bmm	B:min7	4.e	give	.	126.603	.
.	.	8d	your-	.	.	.
.	.	4d	-self	.	.	.
.	.	8B	a-	.	.	.
.	.	[8B	-way	.	.	.
=60	=60	=60	=60	=60	=60	=60
1GMM	G:maj9	8B]	_	.	128.79	.
.	.	[4.A	_	.	.	.
.	.	4A]	_	.	.	.
.	.	4r	.	.	.	.
=61	=61	=61	=61	=61	=61	=61
1DM	D:maj	4.r	.	.	130.976	newline
.	.	8AA	My	.	.	.
.	.	8F#	hands	.	.	.
.	.	4F#	are	.	.	.
.	.	[8E	tied	.	.	.
=62	=62	=62	=62	=62	=62	=62
1GMM	G:maj9	4E]	_	.	133.16	.
.	.	4r	.	.	.	.
.	.	2r	.	.	.	.
=63	=63	=63	=63	=63	=63	=63
1DM	D:maj	4.r	.	.	135.344	.
.	.	8AA	My	.	.	.
.	.	8F#	bo-	.	.	.
.	.	4F#	-dy	.	.	.
.	.	[8E	bruised	D	.	.
=64	=64	=64	=64	=64	=64	=64
1GMM	G:maj9	4E]	_	.	137.529	.
.	.	8F#	she	.	.	.
.	.	4E	got	.	.	.
.	.	4D	me	.	.	.
.	.	[8D	with	.	.	.
=65	=65	=65	=65	=65	=65	=65
1DM	D:maj	4D]	_	.	139.713	newline
.	.	4r	.	.	.	.
.	.	8A	No-	.	.	.
.	.	8A	-thing	.	.	.
.	.	8A	to	.	.	.
.	.	8B	win	.	.	.
=66	=66	=66	=66	=66	=66	=66
1GMM	G:maj9	4.A	_	.	141.908	.
.	.	4.A	and	.	.	.
.	.	4r	.	.	.	.
=67	=67	=67	=67	=67	=67	=67
1Bmm	B:min7	8B	No-	.	144.104	.
.	.	4d	-thing	.	.	.
.	.	4.d	left	.	.	.
.	.	8d	to	.	.	.
.	.	8e	lose	D	.	.
=68	=68	=68	=68	=68	=68	=68
1GMM	G:maj9	2d	_	.	146.299	.
.	.	8r	.	.	.	.
.	.	8d	And	.	.	.
.	.	4d	you	.	.	.
=69	=69	=69	=69	=69	=69	=69
1DM	D:maj	4.e	give	.	148.494	newline
.	.	8d	your-	.	.	.
.	.	4d	-self	.	.	.
.	.	8B	a-	.	.	.
.	.	[8B	-way	B	.	.
=70	=70	=70	=70	=70	=70	=70
1GMM	G:maj9	8B]	_	.	150.672	.
.	.	4.A	_	.	.	.
.	.	8r	.	.	.	.
.	.	8d	And	.	.	.
.	.	8d	you	.	.	.
.	.	[8e	give	.	.	.
=71	=71	=71	=71	=71	=71	=71
1DM	D:maj	4.e]	_	.	152.849	.
.	.	8d	your-	.	.	.
.	.	4d	-self	.	.	.
.	.	8B	a-	.	.	.
.	.	[8B	-way	.	.	.
=72	=72	=72	=72	=72	=72	=72
1GMM	G:maj9	8B]	_	.	155.026	.
.	.	4.A	_	.	.	.
.	.	8r	.	.	.	.
.	.	8d	And	.	.	.
.	.	8d	you	.	.	.
.	.	[8e	give	.	.	.
=73	=73	=73	=73	=73	=73	=73
1DM	D:maj	2e]	_	.	157.204	newline
.	.	8r	.	.	.	.
.	.	8d	And	.	.	.
.	.	8d	you	.	.	.
.	.	[8e	give	.	.	.
=74	=74	=74	=74	=74	=74	=74
1GMM	G:maj9	2e]	_	.	159.394	.
.	.	8r	.	.	.	.
.	.	8d	And	.	.	.
.	.	4d	you	.	.	.
=75	=75	=75	=75	=75	=75	=75
1Bmm	B:min7	4.e	give	.	161.584	.
.	.	8d	your-	.	.	.
.	.	4d	-self	.	.	.
.	.	8B	a-	.	.	.
.	.	[8B	-way	.	.	.
=76	=76	=76	=76	=76	=76	=76
1GMM	G:maj9	8B]	_	.	163.773	.
.	.	4A	_	.	.	.
.	.	8r	.	.	.	.
.	.	8d	With	.	.	.
.	.	8d	or	.	.	.
.	.	8d	with-	.	.	.
.	.	[8e	-out	.	.	.
=77	=77	=77	=77	=77	=77	=77
*>Letter>C	*>Letter>C	*>Letter>C	*>Letter>C	*>Letter>C	*>Letter>C	*>Letter>C
*>Label>Chorus	*>Label>Chorus	*>Label>Chorus	*>Label>Chorus	*>Label>Chorus	*>Label>Chorus	*>Label>Chorus
1DM	D:maj	8e]	_	.	165.963	newline
.	.	[4.f#	you	.	.	.
.	.	2f#]	_	.	.	.
=78	=78	=78	=78	=78	=78	=78
1AM	A:sus4(b7)	2r	.	.	168.142	.
.	.	8e	With	.	.	.
.	.	4e	or	.	.	.
.	.	[8a	with-	.	.	.
=79	=79	=79	=79	=79	=79	=79
1Bmm	B:min7	8a]	_	.	170.322	.
.	.	4g	-out	.	.	.
.	.	4f#	you	.	.	.
.	.	4e	Oh	.	.	.
.	.	[8d	_	.	.	.
=80	=80	=80	=80	=80	=80	=80
1GMM	G:maj9	4d]	_	.	172.501	.
.	.	4r	.	.	.	.
.	.	8d	I	.	.	.
.	.	4e	can't	.	.	.
.	.	[8f#	live	.	.	.
=81	=81	=81	=81	=81	=81	=81
1DM	D:maj	1f#]	_	.	174.68	newline
=82	=82	=82	=82	=82	=82	=82
1AM	A:sus4(b7)	2r	.	.	176.852	.
.	.	8e	with	.	.	.
.	.	4e	or	.	.	.
.	.	8f#	with-	.	.	.
=83	=83	=83	=83	=83	=83	=83
1Bmm	B:min7	4.e	-out	.	179.024	.
.	.	4d	_	.	.	.
.	.	[4.d	you	.	.	.
=84	=84	=84	=84	=84	=84	=84
1GMM	G:maj9	2d]	_	.	181.196	.
.	.	2r	.	.	.	.
=85	=85	=85	=85	=85	=85	=85
1DM	D:maj	4.a	Oh	.	183.368	newline
.	.	4.g	_	.	.	.
.	.	4f#	_	.	.	.
=86	=86	=86	=86	=86	=86	=86
1AM	A:sus4(b7)	2.e	_	.	185.561	.
.	.	4r	.	.	.	.
=87	=87	=87	=87	=87	=87	=87
1Bmm	B:min7	4.a	Oh	.	187.754	.
.	.	4.g	_	.	.	.
.	.	[4f#	_	.	.	.
=88	=88	=88	=88	=88	=88	=88
1GMM	G:maj9	4f#]	_	.	189.947	.
.	.	2d	_	.	.	.
.	.	4r	.	.	.	.
=89	=89	=89	=89	=89	=89	=89
1DM	D:maj	4.a	Oh	.	192.14	newline
.	.	4.g	_	.	.	.
.	.	4f#	_	.	.	.
=90	=90	=90	=90	=90	=90	=90
1AM	A:sus4(b7)	[2e	_	.	194.319	.
.	.	8e]	_	.	.	.
.	.	4e	_	.	.	.
.	.	[8e	_	.	.	.
=91	=91	=91	=91	=91	=91	=91
1Bmm	B:min7	4.e]	_	.	196.498	.
.	.	[8d	_	.	.	.
.	.	2d_	_	.	.	.
=92	=92	=92	=92	=92	=92	=92
1GMM	G:maj9	4d]	_	.	198.677	.
.	.	4r	.	.	.	.
.	.	8d	With	.	.	.
.	.	8d	or	.	.	.
.	.	8d	with-	.	.	.
.	.	[8e	-out	.	.	.
=93	=93	=93	=93	=93	=93	=93
*>Letter>C	*>Letter>C	*>Letter>C	*>Letter>C	*>Letter>C	*>Letter>C	*>Letter>C
*>Label>Chorus	*>Label>Chorus	*>Label>Chorus	*>Label>Chorus	*>Label>Chorus	*>Label>Chorus	*>Label>Chorus
1DM	D:maj	8e]	_	.	200.856	newline
.	.	[4.f#	you	.	.	.
.	.	2f#]	_	.	.	.
=94	=94	=94	=94	=94	=94	=94
1AM	A:sus4(b7)	2r	.	.	203.038	.
.	.	8e	With	.	.	.
.	.	4e	or	.	.	.
.	.	[8a	with-	.	.	.
=95	=95	=95	=95	=95	=95	=95
1Bmm	B:min7	8a]	_	.	205.22	.
.	.	4g	-out	.	.	.
.	.	4f#	you	.	.	.
.	.	4e	Oh	.	.	.
.	.	[8d	_	.	.	.
=96	=96	=96	=96	=96	=96	=96
1GMM	G:maj9	4d]	_	.	207.402	.
.	.	4r	.	.	.	.
.	.	8d	I	.	.	.
.	.	4e	can't	.	.	.
.	.	[8f#	live	.	.	.
=97	=97	=97	=97	=97	=97	=97
1DM	D:maj	1f#_	_	.	209.584	newline
=98	=98	=98	=98	=98	=98	=98
1AM	A:sus4(b7)	4f#]	_	.	211.761	.
.	.	4r	.	.	.	.
.	.	8e	with	.	.	.
.	.	4e	or	.	.	.
.	.	8f#	with-	.	.	.
=99	=99	=99	=99	=99	=99	=99
1Bmm	B:min7	4.e	-out	.	213.937	.
.	.	4d	_	.	.	.
.	.	[4.d	you	.	.	.
=100	=100	=100	=100	=100	=100	=100
1GMM	G:maj9	4d]	_	.	216.113	.
.	.	4r	.	.	.	.
.	.	8e	With	.	.	.
.	.	4e	or	.	.	.
.	.	8f#	with-	.	.	.
=101	=101	=101	=101	=101	=101	=101
*>Letter>A	*>Letter>A	*>Letter>A	*>Letter>A	*>Letter>A	*>Letter>A	*>Letter>A
*>Label>Interlude	*>Label>Interlude	*>Label>Interlude	*>Label>Interlude	*>Label>Interlude	*>Label>Interlude	*>Label>Interlude
1DM	D:maj	4.e	-out	.	218.289	newline
.	.	[8d	you	.	.	.
.	.	2d]	_	.	.	.
=102	=102	=102	=102	=102	=102	=102
1DM	D:maj	1r	.	.	220.482	.
=103	=103	=103	=103	=103	=103	=103
1DM	D:maj	1r	.	.	222.675	.
=104	=104	=104	=104	=104	=104	=104
1DM	D:maj	1r	.	.	224.868	.
=105	=105	=105	=105	=105	=105	=105
1DM	D:maj	[1d	Ooh	.	227.061	newline
=106	=106	=106	=106	=106	=106	=106
1DM	D:maj	2d]	_	.	229.239	.
.	.	4B	Ooh	.	.	.
.	.	4A	_	.	.	.
=107	=107	=107	=107	=107	=107	=107
1DM	D:maj	4.B	ooh	.	231.418	.
.	.	8A	_	.	.	.
.	.	[2A	_	.	.	.
=108	=108	=108	=108	=108	=108	=108
1DM	D:maj	2A]	_	.	233.596	.
.	.	2r	.	.	.	.
=109	=109	=109	=109	=109	=109	=109
1DM	D:maj	8B	Hoo	.	235.775	newline
.	.	[8d	_	.	.	.
.	.	2.d_	_	.	.	.
=110	=110	=110	=110	=110	=110	=110
1DM	D:maj	2d]	_	.	237.971	.
.	.	4B	Ooh	.	.	.
.	.	8A	_	.	.	.
.	.	[8B	Ooh	.	.	.
=111	=111	=111	=111	=111	=111	=111
1DM	D:maj	4.B]	_	.	240.167	.
.	.	8A	_	.	.	.
.	.	[2A	_	.	.	.
=112	=112	=112	=112	=112	=112	=112
1DM	D:maj	2A]	_	.	242.364	.
.	.	2r	.	.	.	.
=113	=113	=113	=113	=113	=113	=113
*>Letter>C	*>Letter>C	*>Letter>C	*>Letter>C	*>Letter>C	*>Letter>C	*>Letter>C
*>Label>Solo	*>Label>Solo	*>Label>Solo	*>Label>Solo	*>Label>Solo	*>Label>Solo	*>Label>Solo
1DM	D:maj	1r	.	.	244.56	newline
=114	=114	=114	=114	=114	=114	=114
1AM	A:sus4(b7)	1r	.	.	246.741	.
=115	=115	=115	=115	=115	=115	=115
1Bmm	B:min7	1r	.	.	248.922	.
=116	=116	=116	=116	=116	=116	=116
1GMM	G:maj9	1r	.	.	251.103	.
=117	=117	=117	=117	=117	=117	=117
1DM	D:maj	1r	.	.	253.284	newline
=118	=118	=118	=118	=118	=118	=118
1AM	A:sus4(b7)	1r	.	.	255.457	.
=119	=119	=119	=119	=119	=119	=119
1Bmm	B:min7	1r	.	.	257.63	.
=120	=120	=120	=120	=120	=120	=120
1GMM	G:maj9	1r	.	.	259.803	.
=121	=121	=121	=121	=121	=121	=121
1DM	D:maj	1r	.	.	261.976	newline
=122	=122	=122	=122	=122	=122	=122
1AM	A:sus4(b7)	1r	.	.	264.165	.
=123	=123	=123	=123	=123	=123	=123
1Bmm	B:min7	1r	.	.	266.354	.
=124	=124	=124	=124	=124	=124	=124
1GMM	G:maj9	1r	.	.	268.542	.
=125	=125	=125	=125	=125	=125	=125
*>Label>>Fadeout	*>Label>>Fadeout	*>Label>>Fadeout	*>Label>>Fadeout	*>Label>>Fadeout	*>Label>>Fadeout	*>Label>>Fadeout
1DM	D:maj	1r	.	.	270.731	newline
=126	=126	=126	=126	=126	=126	=126
1AM	A:sus4(b7)	1r	.	.	272.903	.
=127	=127	=127	=127	=127	=127	=127
1Bmm	B:min7	1r	.	.	275.076	.
=128	=128	=128	=128	=128	=128	=128
1GMM	G:maj9	1r	.	.	277.248	.
=129	=129	=129	=129	=129	=129	=129
1DM	D:maj	1r	.	.	279.42	newline
=130	=130	=130	=130	=130	=130	=130
1AM	A:sus4(b7)	1r	.	.	281.608	.
=131	=131	=131	=131	=131	=131	=131
1Bmm	B:min7	1r	.	.	283.796	.
=132	=132	=132	=132	=132	=132	=132
1GMM	G:maj9	1r	.	.	285.984	.
=133	=133	=133	=133	=133	=133	=133
1DM	D:maj	1r	.	.	288.172	newline
=134	=134	=134	=134	=134	=134	=134
1AM	A:sus4(b7)	1r	.	.	289.878	.
=135	=135	=135	=135	=135	=135	=135
1Bmm	B:min7	1r	.	.	291.585	.
1r;	1r	r;	.	.	293.291	.
1r;	1r	r;	.	.	296.176	.
*-	*-	*-	*-	*-	*-	*-
!!!BillboardChartDate: 1987/06/27
!!!BillboardPeak: 1
!!!BillboardWeeksOnChart: 18
!!!COC: U2
!!!ENC: Nathaniel Condit-Schultz
!!!EST: Awating manual error checking and editing.
!!!OTL: With Or Without You
!!!RDF**chordsym: original McGill chord annotation + (implied pitch class set, with bass pitch in first position)
!!!RDF**harmony: **recip + pitch class of root + harmonic quality
!!!RDF**leadinstrument: original McGill primary instrumentation annotation
!!!RDF**phrase: newline = linebreak in original McGill transcription
!!!RDF**timestamp: McGill audio timestamp in seconds
!!!RDT: 2017/01/12/
!!!SampleActualRank: 38
!!!SampleID#: 0681
!!!SampleTargetRank: 38
!!!MBID: 6b9a509f-6907-4a6e-9345-2f12da09ba4b
